X:11
T:NIMBLE FINGER'S -- REEL.
R:reel
C:H. F. WILLIAMS.
B:Coles
Z:John Walsh <walsh:mat:h.ubc.ca>
M:C|
L:1/8
K:C
"^3d POSITION."v"1"C2("3"uE"1"C) ("4"c"1"C)("3"E"1"C)|"4"F"3"E"2"D"3"E
"4"F"2"Dd"2"D|"^SEGUE"EDCD EFGE|FDGE C2C2|\
C2(EC) (cC)(EC)|FEDE FDdD|EDCD EFGF|FDGE C2C2H|]
"_1st POSITION."v"4"e2 (udc) "4"e2 (dc)|dcBc defd|"4"e2 (dc) AcGc|\
"4"edcB c2c2|\
"4"e2 (dc) "4"e2(dc)|dcBc defd|"4"ecdB cABG|"4"AFGE FEDE|]
